svg/food/lollipop_fill.svg

<?xml version="1.0" encoding="UTF-8"?>
<svg width="24px" height="24px" viewBox="0 0 24 24" version="1.1" xmlns="http://www.w3.org/2000/svg" xmlns:xlink="http://www.w3.org/1999/xlink">
    <title>lollipop_fill</title>
    <g id="页面-1" stroke="none" stroke-width="1" fill="none" fill-rule="evenodd">
        <g id="Food" transform="translate(-288.000000, -48.000000)" fill-rule="nonzero">
            <g id="lollipop_fill" transform="translate(288.000000, 48.000000)">
                 <path d="M24,0 L24,24 L0,24 L0,0 L24,0 Z M12.5934901,23.257841 L12.5819402,23.2595131 L12.5108777,23.2950439 L12.4918791,23.2987469 L12.4918791,23.2987469 L12.4767152,23.2950439 L12.4056548,23.2595131 C12.3958229,23.2563662 12.3870493,23.2590235 12.3821421,23.2649074 L12.3780323,23.275831 L12.360941,23.7031097 L12.3658947,23.7234994 L12.3769048,23.7357139 L12.4804777,23.8096931 L12.4953491,23.8136134 L12.4953491,23.8136134 L12.5071152,23.8096931 L12.6106902,23.7357139 L12.6232938,23.7196733 L12.6232938,23.7196733 L12.6266527,23.7031097 L12.609561,23.275831 C12.6075724,23.2657013 12.6010112,23.2592993 12.5934901,23.257841 L12.5934901,23.257841 Z M12.8583906,23.1452862 L12.8445485,23.1473072 L12.6598443,23.2396597 L12.6498822,23.2499052 L12.6498822,23.2499052 L12.6471943,23.2611114 L12.6650943,23.6906389 L12.6699349,23.7034178 L12.6699349,23.7034178 L12.678386,23.7104931 L12.8793402,23.8032389 C12.8914285,23.8068999 12.9022333,23.8029875 12.9078286,23.7952264 L12.9118235,23.7811639 L12.8776777,23.1665331 C12.8752882,23.1545897 12.8674102,23.1470016 12.8583906,23.1452862 L12.8583906,23.1452862 Z M12.1430473,23.1473072 C12.1332178,23.1423925 12.1221763,23.1452606 12.1156365,23.1525954 L12.1099173,23.1665331 L12.0757714,23.7811639 C12.0751323,23.7926639 12.0828099,23.8018602 12.0926481,23.8045676 L12.108256,23.8032389 L12.3092106,23.7104931 L12.3186497,23.7024347 L12.3186497,23.7024347 L12.3225043,23.6906389 L12.340401,23.2611114 L12.337245,23.2485176 L12.337245,23.2485176 L12.3277531,23.2396597 L12.1430473,23.1473072 Z" id="MingCute" fill-rule="nonzero"></path>
                <path d="M2,11 C2,6.02944 6.02944,2 11,2 C14.5069,2 17.5453,4.00574 19.0306,6.93264 C19.2655,7.39536 19.3272,7.92561 19.23,8.43532 C18.6902,11.2664 17.3992,13.431 15.892,14.6332 C14.5413,15.7107 12.7257,16.3057 11.1994,16.1336 C9.95963,15.9936 8.82623,15.3667 8.04879,14.3908 C7.27131,13.4149 6.91355,12.17 7.05425,10.9302 C7.27456,8.97379 9.03831,7.56694 10.9939,7.78701 C11.6926,7.86547 12.3314,8.21823 12.7697,8.76763 C13.208,9.31699 13.4101,10.0181 13.3315,10.7167 C13.2128,11.7707 12.2622,12.5291 11.2081,12.4108 C10.8531,12.372 10.5308,12.1949 10.3094,11.9184 L10.2219,11.7954 C10.1152,11.6258 10.0484,11.4347 10.0258,11.2367 L10.024,11.2181 L10.0583,11.3373 C10.1967,11.7237 10.566,12.0001 11,12.0001 C12.2485,12.0001 13.0799,11.1576 12.9938,10.054 C12.9209,9.11918 12.1905,8.2935 11.2111,8.18326 C9.63683,8.00604 8.21663,9.13792 8.03815,10.7121 C7.93905,11.5932 8.19451,12.4767 8.748,13.1682 C9.3015,13.8597 10.1075,14.3025 10.988,14.3987 C13.1365,14.6398 15.0766,13.0919 15.319,10.9404 C15.4569,9.71453 15.1022,8.48432 14.3331,7.52027 C13.5638,6.55616 12.443,5.93717 11.2173,5.79953 C8.16438,5.45597 5.41072,7.65241 5.06691,10.7056 C4.86646,12.4717 5.37638,14.246 6.4845,15.637 C7.59256,17.0279 9.20801,17.9215 10.9752,18.1209 C13.0568,18.3557 15.3921,17.5904 17.1392,16.1967 C18.1564,15.3853 19.0772,14.2532 19.8077,12.8596 C19.5135,14.2597 18.894,15.5399 18.0319,16.6177 L21.7071,20.2929 C22.0976,20.6834 22.0976,21.3166 21.7071,21.7071 C21.3166,22.0976 20.6834,22.0976 20.2929,21.7071 L16.6177,18.0319 C15.078,19.2635 13.125,20 11,20 C6.02944,20 2,15.9706 2,11 Z" id="路径" fill="#09244B"></path>
            </g>
        </g>
    </g>
</svg>

<svg xmlns="http://www.w3.org/2000/svg" width="24" height="24"><g fill="none" fill-rule="nonzero"><path d="M24 0v24H0V0h24ZM12.593 23.258l-.011.002-.071.035-.02.004-.014-.004-.071-.035c-.01-.004-.019-.001-.024.005l-.004.01-.017.428.005.02.01.013.104.074.015.004.012-.004.104-.074.012-.016.004-.017-.017-.427c-.002-.01-.009-.017-.017-.018Zm.265-.113-.013.002-.185.093-.01.01-.003.011.018.43.005.012.008.007.201.093c.012.004.023 0 .029-.008l.004-.014-.034-.614c-.003-.012-.01-.02-.02-.022Zm-.715.002a.023.023 0 0 0-.027.006l-.006.014-.034.614c0 .012.007.02.017.024l.015-.002.201-.093.01-.008.004-.011.017-.43-.003-.012-.01-.01-.184-.092Z"/><path fill="#09244B" d="M2 11a9 9 0 0 1 17.03-4.067c.235.462.297.993.2 1.502-.54 2.831-1.83 4.996-3.338 6.198-1.35 1.078-3.166 1.673-4.693 1.5a4.703 4.703 0 0 1-4.145-5.203 3.564 3.564 0 0 1 3.94-3.143 2.65 2.65 0 0 1 2.338 2.93 1.921 1.921 0 0 1-2.124 1.694 1.335 1.335 0 0 1-.899-.493l-.087-.123a1.333 1.333 0 0 1-.196-.558l-.002-.019.034.12A1 1 0 0 0 11 12c1.249 0 2.08-.842 1.994-1.946-.073-.935-.803-1.76-1.783-1.87a2.87 2.87 0 0 0-3.173 2.528 3.334 3.334 0 0 0 2.95 3.687 3.92 3.92 0 0 0 4.331-3.459 4.65 4.65 0 0 0-4.102-5.14 5.563 5.563 0 0 0-6.15 4.906 6.702 6.702 0 0 0 5.908 7.415c2.082.235 4.417-.53 6.164-1.924 1.017-.812 1.938-1.944 2.669-3.337a8.966 8.966 0 0 1-1.776 3.758l3.675 3.675a1 1 0 0 1-1.414 1.414l-3.675-3.675A9 9 0 0 1 2 11Z"/></g></svg>
